flaticon/hand-gestures/sprout-2.svg

<svg xmlns="http://www.w3.org/2000/svg" width="32" height="32" viewBox="0 0 24 24">
    <path d="M 23.777344 11.320312 C 23.054688 10.359375 22.335938 10.359375 20.574219 11.28125 L 20.171875 11.527344 C 19.964844 11.105469 19.601562 10.78125 19.171875 10.640625 C 19.132812 10 18.734375 9.398438 18.132812 9.117188 C 18.414062 8.679688 18.453125 8.15625 18.210938 7.757812 C 17.972656 7.398438 17.53125 7.117188 16.8125 7.238281 C 17.171875 6.714844 17.25 6.117188 16.929688 5.714844 C 16.652344 5.355469 16.132812 5.277344 15.570312 5.476562 C 15.570312 5.394531 15.53125 5.316406 15.53125 5.277344 C 15.332031 4.394531 14.53125 3.792969 13.609375 3.792969 C 13.328125 3.792969 13.007812 3.875 12.730469 3.996094 C 12.6875 3.996094 12.648438 3.953125 12.648438 3.953125 C 12.328125 3.59375 11.847656 3.394531 11.367188 3.394531 C 10.488281 3.394531 9.765625 4.035156 9.605469 4.835938 C 9.367188 4.835938 9.046875 4.914062 8.804688 5.195312 C 8.566406 5.4375 8.484375 5.796875 8.527344 6.234375 C 7.726562 5.753906 7.125 5.996094 6.804688 6.394531 C 6.484375 6.757812 6.445312 7.316406 6.605469 7.796875 C 6.402344 7.796875 6.203125 7.878906 6.003906 7.996094 C 5.617188 8.265625 5.359375 8.78125 5.257812 9.273438 C 4.269531 9.0625 3.320312 9.011719 2.800781 9 L 2.800781 7.796875 L 0 7.796875 L 0 20.605469 L 2.800781 20.605469 L 2.800781 19.40625 L 8.003906 19.40625 C 8.804688 19.40625 9.648438 19.363281 10.445312 19.285156 L 15.652344 18.484375 C 15.851562 18.484375 16.050781 18.445312 16.210938 18.40625 C 16.691406 18.324219 17.132812 18.085938 17.53125 17.722656 L 23.574219 12.921875 C 24.054688 12.519531 24.136719 11.800781 23.777344 11.320312 Z M 6.042969 9.476562 C 6.125 9.15625 6.285156 8.796875 6.445312 8.636719 C 6.523438 8.558594 6.605469 8.597656 6.644531 8.597656 C 6.84375 8.679688 7.363281 8.835938 7.605469 8.476562 C 7.804688 8.199219 7.605469 7.878906 7.484375 7.71875 C 7.285156 7.515625 7.285156 7.117188 7.445312 6.917969 C 7.644531 6.675781 8.003906 6.835938 8.207031 6.957031 L 8.285156 7.035156 C 8.484375 7.15625 8.804688 7.355469 9.085938 7.15625 C 9.367188 6.957031 9.367188 6.554688 9.328125 6.15625 C 9.328125 5.957031 9.328125 5.796875 9.40625 5.714844 C 9.527344 5.59375 9.765625 5.59375 9.886719 5.59375 C 10.007812 5.59375 10.167969 5.59375 10.285156 5.476562 L 10.40625 5.355469 L 10.40625 5.195312 C 10.40625 4.636719 10.847656 4.195312 11.40625 4.195312 C 11.6875 4.195312 11.929688 4.316406 12.128906 4.476562 C 12.128906 4.515625 12.609375 4.996094 13.007812 4.753906 C 13.207031 4.636719 13.410156 4.59375 13.609375 4.59375 C 14.167969 4.59375 14.648438 4.957031 14.769531 5.476562 C 14.769531 5.476562 14.808594 5.554688 14.808594 5.835938 L 14.808594 6.15625 L 15.128906 6.195312 L 15.171875 6.234375 C 15.289062 6.316406 15.53125 6.4375 15.769531 6.316406 C 16.089844 6.195312 16.289062 6.234375 16.332031 6.277344 C 16.410156 6.394531 16.410156 6.675781 16.132812 6.996094 C 15.851562 7.277344 15.972656 7.878906 16.089844 8.078125 L 16.292969 8.316406 L 16.570312 8.199219 C 17.089844 7.996094 17.453125 8.078125 17.570312 8.238281 C 17.652344 8.398438 17.570312 8.679688 17.332031 8.917969 C 17.089844 9.117188 17.171875 9.4375 17.210938 9.519531 L 17.292969 9.796875 L 17.570312 9.796875 C 18.050781 9.878906 18.414062 10.320312 18.414062 10.800781 L 18.414062 10.878906 C 18.414062 11 18.414062 11.359375 18.734375 11.359375 C 19.089844 11.398438 19.367188 11.632812 19.488281 11.949219 L 17.132812 13.402344 C 16.652344 13.679688 15.570312 13.761719 14.570312 13.761719 C 14.769531 13.402344 14.691406 12.960938 14.328125 12.441406 C 13.6875 11.519531 12.609375 10.960938 11.449219 10.960938 L 9.886719 10.960938 C 9.046875 10.960938 8.246094 10.71875 7.605469 10.238281 C 7.203125 9.917969 6.683594 9.679688 6.042969 9.476562 Z M 2 19.804688 L 0.800781 19.804688 L 0.800781 8.597656 L 2 8.597656 Z M 23.09375 12.359375 L 17.011719 17.082031 L 16.972656 17.125 C 16.730469 17.402344 16.410156 17.5625 16.050781 17.605469 C 15.890625 17.644531 15.769531 17.644531 15.609375 17.644531 L 10.328125 18.445312 C 9.566406 18.5625 8.765625 18.605469 8.003906 18.605469 L 2.800781 18.605469 C 2.800781 18.605469 2.800781 13.121094 2.800781 10.808594 L 2.800781 9.796875 C 3.324219 9.820312 4.304688 9.875 5.292969 10.121094 L 5.5625 10.238281 C 6.246094 10.398438 6.765625 10.679688 7.164062 10.960938 C 7.925781 11.519531 8.886719 11.839844 9.925781 11.839844 L 11.488281 11.839844 C 12.367188 11.839844 13.207031 12.238281 13.6875 12.960938 C 13.886719 13.195312 13.925781 13.429688 13.890625 13.515625 C 13.890625 13.515625 13.890625 13.519531 13.890625 13.519531 C 13.769531 13.71875 13.292969 13.800781 12.777344 13.839844 C 12.761719 13.839844 12.746094 13.839844 12.730469 13.839844 C 12.597656 13.839844 12.472656 13.839844 12.367188 13.839844 L 8.484375 13.839844 C 7.246094 13.839844 6.484375 14.441406 6.484375 15.441406 C 6.484375 15.683594 6.644531 15.84375 6.882812 15.84375 C 7.125 15.84375 7.285156 15.683594 7.285156 15.441406 C 7.285156 15.242188 7.285156 14.640625 8.484375 14.640625 L 12.367188 14.640625 C 12.460938 14.640625 12.578125 14.640625 12.730469 14.640625 C 12.753906 14.640625 12.78125 14.640625 12.808594 14.640625 C 12.847656 14.640625 12.929688 14.640625 13.007812 14.640625 C 14.890625 14.683594 16.652344 14.640625 17.570312 14.160156 L 21.015625 12.039062 C 22.695312 11.199219 22.855469 11.398438 23.175781 11.878906 C 23.253906 12 23.253906 12.238281 23.09375 12.359375 Z M 23.09375 12.359375"/>
</svg>

<svg xmlns="http://www.w3.org/2000/svg" width="32" height="32" viewBox="0 0 24 24">
    <path d="M23.777 11.32c-.722-.96-1.441-.96-3.203-.039l-.402.246a1.73 1.73 0 0 0-1-.886 1.824 1.824 0 0 0-1.04-1.524c.282-.437.321-.96.079-1.36-.238-.359-.68-.64-1.398-.519.359-.523.437-1.12.117-1.523-.278-.36-.797-.438-1.36-.238 0-.082-.039-.16-.039-.2-.199-.882-1-1.484-1.922-1.484-.28 0-.601.082-.879.203-.043 0-.082-.043-.082-.043-.32-.36-.8-.558-1.28-.558-.88 0-1.602.64-1.763 1.44-.238 0-.558.08-.8.36-.239.242-.32.602-.278 1.04-.8-.481-1.402-.239-1.722.16-.32.363-.36.921-.2 1.402-.203 0-.402.082-.601.2-.387.269-.645.784-.746 1.276A13.663 13.663 0 0 0 2.8 9V7.797H0v12.808h2.8v-1.199h5.204c.8 0 1.644-.043 2.441-.12l5.207-.802c.2 0 .399-.039.559-.078.48-.082.922-.32 1.32-.683l6.043-4.801c.48-.402.563-1.121.203-1.602zM6.043 9.477c.082-.32.242-.68.402-.84.078-.078.16-.04.2-.04.199.083.718.239.96-.12.2-.278 0-.598-.12-.758-.2-.203-.2-.602-.04-.801.2-.242.559-.082.762.039l.078.078c.2.121.52.32.8.121.282-.199.282-.601.243-1 0-.199 0-.36.078-.441.121-.121.36-.121.48-.121.122 0 .282 0 .4-.117l.12-.122v-.16c0-.558.442-1 1-1 .281 0 .524.121.723.282 0 .039.48.52.879.277.199-.117.402-.16.601-.16.559 0 1.04.363 1.16.883 0 0 .04.078.04.359v.32l.32.04.043.038c.117.082.36.204.598.082.32-.12.52-.082.562-.039.078.118.078.399-.2.72-.28.28-.16.882-.042 1.081l.203.238.277-.117c.52-.203.883-.12 1 .04.082.16 0 .44-.238.679-.242.2-.16.52-.121.602l.082.277h.277c.48.082.844.523.844 1.004v.078c0 .121 0 .48.32.48a.91.91 0 0 1 .754.59l-2.355 1.453c-.48.278-1.563.36-2.563.36.2-.36.121-.801-.242-1.32a3.502 3.502 0 0 0-2.879-1.481H9.887c-.84 0-1.64-.242-2.282-.723-.402-.32-.921-.558-1.562-.761zM2 19.805H.8V8.598H2zm21.094-7.446l-6.082 4.723-.04.043a1.424 1.424 0 0 1-.921.48c-.16.04-.281.04-.442.04l-5.28.8c-.763.117-1.563.16-2.325.16H2.8V9.797c.523.023 1.504.078 2.492.324l.27.117c.683.16 1.203.442 1.601.723a4.655 4.655 0 0 0 2.762.879h1.562c.88 0 1.719.398 2.2 1.12.199.235.238.47.203.556v.004c-.121.199-.598.28-1.114.32H8.484c-1.238 0-2 .601-2 1.601 0 .243.16.403.399.403.242 0 .402-.16.402-.403 0-.199 0-.8 1.2-.8h4.523c1.883.043 3.644 0 4.562-.48l3.446-2.122c1.68-.84 1.84-.64 2.16-.16.078.121.078.36-.082.48zm0 0"/>
</svg>
